img/ten/ten-icon-4.svg

<svg width="110" height="110" viewBox="0 0 110 110" fill="none" xmlns="http://www.w3.org/2000/svg">
<path d="M44.7313 80.3431H42.0246V98.9307H44.7313V80.3431Z" fill="white"/>
<path d="M74.762 66.1115H56.2242V68.8255H74.762V66.1115Z" fill="white"/>
<path d="M33.3403 75.6167L20.2321 88.7601L22.1461 90.6792L35.2542 77.5358L33.3403 75.6167Z" fill="white"/>
<path d="M53.4126 75.6108L51.4987 77.5299L64.6112 90.6777L66.5251 88.7586L53.4126 75.6108Z" fill="white"/>
<path d="M44.7313 36H42.0246V54.5876H44.7313V36Z" fill="white"/>
<path d="M30.5378 66.1115H12V68.8255H30.5378V66.1115Z" fill="white"/>
<path d="M64.6113 44.2559L51.5031 57.3993L53.4171 59.3184L66.5252 46.175L64.6113 44.2559Z" fill="white"/>
<path d="M22.1462 44.2575L20.2323 46.1766L33.3405 59.32L35.2544 57.4009L22.1462 44.2575Z" fill="white"/>
</svg>

<svg xmlns="http://www.w3.org/2000/svg" width="110" height="110" fill="none">
    <defs/>
    <path fill="#fff" d="M44.731 80.343h-2.706v18.588h2.706V80.343z"/>
    <path fill="#fff" d="M74.762 66.112H56.224v2.714h18.538v-2.714z" class="load"/>
    <path fill="#fff" d="M33.34 75.617L20.232 88.76l1.914 1.92 13.108-13.144-1.914-1.92z"/>
    <path fill="#fff" d="M53.413 75.61l-1.914 1.92L64.61 90.678l1.914-1.92-13.112-13.147z" class="load"/>
    <path fill="#fff" d="M44.731 36h-2.706v18.588h2.706V36z"/>
    <path fill="#fff" d="M30.538 66.112H12v2.714h18.538v-2.714z" class="load"/>
    <path fill="#fff" d="M64.611 44.256L51.503 57.399l1.914 1.92 13.108-13.144-1.914-1.92z"/>
    <path fill="#fff" d="M22.146 44.258l-1.914 1.919L33.34 59.32l1.914-1.92-13.108-13.142z" class="load"/>
</svg>
